X: 314
T: A Pocketful Of Lint
R: reel
M: 4/4
K: Edorian
|:EB~B2 AGFD|EFGB AB=cA|~B2EB AGFA|GB~B2 FB~B2|
EB~B2 AGFD|EFGB AB=cA|~B2EB AGFA|~g2fg ~e3d:|
|:~e3f gfed|Ad~d2 ~f3d|~e3f gfed|(3Bcd AG FE~E2|
~e3f gfed|Ad~d2 ~f3g|a2 (3gfe fdec|1 dBAF Beed:|2 dBAF BEED||

